ion/notifications-circle-sharp.svg

<svg viewBox="0 0 512 512" xmlns="http://www.w3.org/2000/svg"><path d="M295.68 351.43c0 .19 0 .38 0 .57h.32Z"/><g fill="none"><path d="M256 384c22.28 0 39.36-10.63 39.66-32H216c0 21.75 17.53 32 40 32Z"/><path d="M295.67 352h.33l-.32-.57c0 .19-.01.38-.01.57Z"/></g><path d="M256 48C141.31 48 48 141.31 48 256c0 114.69 93.31 208 208 208s208-93.31 208-208 -93.31-208-208-208Zm0 336c-22.48 0-40-10.25-40-32h80c-.3 21.37-17.71 32-40 32Zm112-48H144v-28l28-36v-32.3c0-40.41 15.82-75.35 56-84.27l4-27.43h48l4 27.43c40 8.92 56 44 56 84.27V272l28 36Z"/></svg>

<svg xmlns="http://www.w3.org/2000/svg" width="512" height="512" viewBox="0 0 512 512"><path d="M295.68,351.43c0,.19,0,.38,0,.57H296Z"/><path d="M256,384c22.28,0,39.36-10.63,39.66-32H216C216,373.75,233.53,384,256,384Z" style="fill:none"/><path d="M295.67,352H296l-.32-.57C295.68,351.62,295.67,351.81,295.67,352Z" style="fill:none"/><path d="M256,48C141.31,48,48,141.31,48,256s93.31,208,208,208,208-93.31,208-208S370.69,48,256,48Zm0,336c-22.48,0-40-10.25-40-32h80C295.7,373.37,278.29,384,256,384Zm112-48H144V308l28-36V239.7c0-40.41,15.82-75.35,56-84.27L232,128h48l4,27.43c40,8.92,56,44,56,84.27V272l28,36Z"/></svg>
